app/assets/images/icons/alert.svg

<?xml version="1.0" encoding="UTF-8" standalone="no"?>
<svg width="30px" height="30px" viewBox="0 0 30 30" version="1.1" xmlns="http://www.w3.org/2000/svg" xmlns:xlink="http://www.w3.org/1999/xlink">
    <!-- Generator: Sketch 3.7.2 (28276) - http://www.bohemiancoding.com/sketch -->
    <title>alert</title>
    <desc>Created with Sketch.</desc>
    <defs></defs>
    <g id="Icons" stroke="none" stroke-width="1" fill="none" fill-rule="evenodd">
        <g id="alert" fill="#050505">
            <path d="M15,30 C23.2842712,30 30,23.2842712 30,15 C30,6.71572875 23.2842712,0 15,0 C6.71572875,0 0,6.71572875 0,15 C0,23.2842712 6.71572875,30 15,30 Z M15,28 C22.1797017,28 28,22.1797017 28,15 C28,7.82029825 22.1797017,2 15,2 C7.82029825,2 2,7.82029825 2,15 C2,22.1797017 7.82029825,28 15,28 Z M13.5,9.49710104 C13.5,8.67027497 14.1657972,8 15,8 L15,8 C15.8284271,8 16.5,8.67165598 16.5,9.49710104 L16.5,16.502899 C16.5,17.329725 15.8342028,18 15,18 L15,18 C14.1715729,18 13.5,17.328344 13.5,16.502899 L13.5,9.49710104 Z M15,22 C15.8284271,22 16.5,21.3284271 16.5,20.5 C16.5,19.6715729 15.8284271,19 15,19 C14.1715729,19 13.5,19.6715729 13.5,20.5 C13.5,21.3284271 14.1715729,22 15,22 Z" id="Oval-15"></path>
        </g>
    </g>
</svg>

<?xml version="1.0" encoding="UTF-8" standalone="no"?>
<svg width="30" height="30" viewBox="0 0 30 30" xmlns="http://www.w3.org/2000/svg">
  <path d="M15 30c8.284 0 15-6.716 15-15 0-8.284-6.716-15-15-15C6.716 0 0 6.716 0 15c0 8.284 6.716 15 15 15zm0-2c7.18 0 13-5.82 13-13S22.18 2 15 2 2 7.82 2 15s5.82 13 13 13zM13.5 9.497C13.5 8.67 14.166 8 15 8a1.5 1.5 0 0 1 1.5 1.497v7.006C16.5 17.33 15.834 18 15 18a1.5 1.5 0 0 1-1.5-1.497V9.497zM15 22a1.5 1.5 0 1 0 0-3 1.5 1.5 0 0 0 0 3z" fill="#050505" fill-rule="evenodd"/>
</svg>
